X: 1
T: On the Wings of a Skorie #2
C: Michel Ferrie 1995
N: A skorie is a herring gull in the Shetlands
D: Fiddler's Bid "Da Farder Ben Da Welcomer"
D: Alasdair Fraser and Natalie Haas "Abundance"
S: https://thesession.org/tunes/2898 2nd setting 2018-5-15
R: reel
Z: 2018 John Chambers <jc:trillian.mit.edu>
M: C|
L: 1/8
K: Em
|:\
"Em"BEE2 BEcE | BEE2 GFGB | "D"ABGB AGFA | "Em"GEED EFGA |
"Em"BEE2 BEcE | BEE2 GFGB | "D"ABGB AGFA | "Em"GEED [1 E3A :|2 E3G ||
|:\
"Em"EBBG "D"AGFA | "Em"GEE2 GA (3Bcd | Beed efge | "D"fedf "Bm"eBgf |
"Em"eBB2 "D"BAFA | "Em"GEE2 GA (3Bcd |"D"fadf efdB |ABdf [1 "Em"e2BA :|2 "Em"e4 |]
